icon-svg/seagate-ssd.svg

<svg xmlns="http://www.w3.org/2000/svg" fill="#44739e" viewBox="0 0 24 24"><path d="m20 14.953.512.768H22v-.334h-1.333v-.666H22v-.334h-1.667v-.666H22v-1.334h-1.667v-.666H22v-.334h-1.667v-.666H22v-.334h-1.667v-.666H22v-.334h-1.667v-.666H22v-.334h-2ZM20.97 4.4H3.03A1.031 1.031 0 0 0 2 5.426v12.607a1.031 1.031 0 0 0 1.03 1.03h17.94a1.031 1.031 0 0 0 1.03-1.03V16.4h-1.845l-.822-1.232V7.73H22v-2.3a1.031 1.031 0 0 0-1.03-1.03m-.637 12.667A.334.334 0 1 1 20 17.4a.334.334 0 0 1 .333-.337Zm-16.666.663A.334.334 0 1 1 4 17.4a.335.335 0 0 1-.333.33m0-11.334A.333.333 0 1 1 4 6.063a.334.334 0 0 1-.333.337Zm9.311 9.4A15.2 15.2 0 0 1 10.7 16.9c-.114-.512-.285-1.026-.4-1.538a11.68 11.68 0 0 0 2.987-1.708 5.654 5.654 0 0 0 2.449-3.5 2.94 2.94 0 0 0-.058-1c-.462-1.588-2.606-3.224-6.631-.54-.42.245-1.11.739-1.11 1.223a.308.308 0 0 0 .2.285c.622.272 1.999-1.122 3.363-1.587a1.652 1.652 0 0 1 2.335.968 1.634 1.634 0 0 1-.056.74 4.227 4.227 0 0 1-1.795 1.851A11.74 11.74 0 0 1 8.653 13.6c-1.189.325-2.706.148-3.331-.912a2.5 2.5 0 0 1-.369-1.337 4.23 4.23 0 0 1 .369-1.566 6.6 6.6 0 0 1 1.708-2.16 11.82 11.82 0 0 1 2.22-1.538l-.027.029a3.14 3.14 0 0 1 .425-.227c.058.143.143.285.2.426a9.3 9.3 0 0 0-.911.512C4.75 9.37 5.392 12.261 7.2 12.52c1.233.231 2.746-.562 3.814-1.2.809-.506 1.538-.989 1.538-1.566 0-.367-.423-.542-.769-.483-1.114.279-2.605 1.82-3.842 1.82a.861.861 0 0 1-.912-.939 3.136 3.136 0 0 1 1.794-2.129 8.45 8.45 0 0 1 4.667-1.566c3.931.136 6.285 5.043-.512 9.337zm7.355-9.4a.333.333 0 1 1 .334-.333.333.333 0 0 1-.334.337Z"/></svg>

<?xml version="1.0" encoding="UTF-8"?>
<svg width="24px" fill="#44739e" height="24px" viewBox="0 0 24 24" version="1.1" xmlns="http://www.w3.org/2000/svg" xmlns:xlink="http://www.w3.org/1999/xlink">
            <path d="m 20,14.953 0.512,0.768 H 22 V 15.387 H 20.667 V 14.721 H 22 V 14.387 H 20.333 V 13.721 H 22 V 12.387 H 20.333 V 11.721 H 22 V 11.387 H 20.333 V 10.721 H 22 V 10.387 H 20.333 V 9.721 H 22 V 9.387 H 20.333 V 8.721 H 22 V 8.387 H 20 Z M 20.97,4.4 H 3.03 A 1.031,1.031 0 0 0 2,5.426 v 12.607 a 1.031,1.031 0 0 0 1.03,1.03 H 20.97 A 1.031,1.031 0 0 0 22,18.033 V 16.4 H 20.155 L 19.333,15.168 V 7.73 H 22 V 5.43 A 1.031,1.031 0 0 0 20.97,4.4 Z M 20.333,17.067 A 0.334,0.334 0 1 1 20,17.4 0.334,0.334 0 0 1 20.333,17.063 Z M 3.667,17.73 A 0.334,0.334 0 1 1 4,17.4 0.335,0.335 0 0 1 3.667,17.73 Z m 0,-11.334 A 0.333,0.333 0 1 1 4,6.063 0.334,0.334 0 0 1 3.667,6.4 Z m 9.311,9.4 A 15.2,15.2 0 0 1 10.7,16.9 c -0.114,-0.512 -0.285,-1.026 -0.4,-1.538 a 11.679,11.679 0 0 0 2.987,-1.708 5.654,5.654 0 0 0 2.449,-3.5 2.937,2.937 0 0 0 -0.058,-1 C 15.216,7.566 13.072,5.93 9.047,8.614 8.627,8.859 7.937,9.353 7.937,9.837 a 0.308,0.308 0 0 0 0.2,0.285 C 8.759,10.394 10.136,9 11.5,8.535 a 1.652,1.652 0 0 1 2.335,0.968 1.634,1.634 0 0 1 -0.056,0.74 4.227,4.227 0 0 1 -1.795,1.851 A 11.74,11.74 0 0 1 8.653,13.6 C 7.464,13.925 5.947,13.748 5.322,12.688 A 2.5,2.5 0 0 1 4.953,11.351 4.227,4.227 0 0 1 5.322,9.785 6.6,6.6 0 0 1 7.03,7.625 11.82,11.82 0 0 1 9.25,6.087 L 9.223,6.116 A 3.137,3.137 0 0 1 9.648,5.889 c 0.058,0.143 0.143,0.285 0.2,0.426 A 9.341,9.341 0 0 0 8.937,6.827 C 4.75,9.37 5.392,12.261 7.2,12.52 c 1.233,0.231 2.746,-0.562 3.814,-1.2 0.809,-0.506 1.538,-0.989 1.538,-1.566 0,-0.367 -0.423,-0.542 -0.769,-0.483 -1.114,0.279 -2.605,1.82 -3.842,1.82 A 0.861,0.861 0 0 1 7.029,10.152 3.136,3.136 0 0 1 8.823,8.023 8.45,8.45 0 0 1 13.49,6.457 c 3.931,0.136 6.285,5.043 -0.512,9.337 z m 7.355,-9.4 A 0.333,0.333 0 1 1 20.667,6.063 0.333,0.333 0 0 1 20.333,6.4 Z"/>

</svg>
